img/map-ice-cream.svg

<svg width="80" height="140" viewBox="0 0 80 140" fill="none" xmlns="http://www.w3.org/2000/svg">
<path d="M40.148 7.01152C45.1544 7.01029 50.0732 8.31361 54.4116 10.7909C58.75 13.2682 62.3557 16.8325 64.8674 21.1267C67.3791 25.4209 68.7086 30.2942 68.7227 35.2583C68.7368 40.2224 67.435 45.103 64.9477 49.4112C66.6731 49.6555 68.2957 50.3714 69.6339 51.4786C70.972 52.5859 71.9727 54.0407 72.5239 55.6802C73.0751 57.3196 73.1549 59.0789 72.7545 60.7608C72.3541 62.4427 71.4893 63.9809 70.2569 65.2028C69.0245 66.4248 67.4733 67.2824 65.777 67.6794C64.0808 68.0764 62.3066 67.9972 60.6532 67.4507C58.9998 66.9042 57.5325 65.9119 56.4158 64.5851C55.2992 63.2582 54.5772 61.6493 54.3308 59.9385C53.9772 60.1388 53.6136 60.3291 53.2499 60.5194C52.7446 63.6039 51.149 66.4094 48.7486 68.4342C46.3481 70.4589 43.2994 71.5708 40.148 71.5708C36.9965 71.5708 33.9478 70.4589 31.5474 68.4342C29.1469 66.4094 27.5513 63.6039 27.046 60.5194C26.6824 60.3291 26.3187 60.1388 25.9651 59.9385C25.7193 61.6509 24.9971 63.2614 23.8794 64.5894C22.7618 65.9174 21.293 66.9102 19.6379 67.4564C17.9828 68.0027 16.2069 68.0807 14.5095 67.6817C12.8122 67.2827 11.2606 66.4226 10.0289 65.1978C8.79724 63.973 7.93419 62.432 7.53667 60.7479C7.13916 59.0637 7.2229 57.3031 7.7785 55.6635C8.3341 54.0239 9.33956 52.5704 10.682 51.466C12.0245 50.3615 13.6509 49.65 15.3785 49.4112C12.8925 45.1052 11.5908 40.2274 11.6035 35.2658C11.6163 30.3042 12.9431 25.433 15.4512 21.1397C17.9593 16.8464 21.5607 13.2816 25.8949 10.8022C30.2292 8.32271 35.1441 7.01555 40.148 7.01152ZM40.148 6.74204e-06C34.5387 -0.00342913 29.0078 1.30642 24.0055 3.82295C19.0032 6.33949 14.6708 9.99159 11.361 14.482C8.05108 18.9725 5.85724 24.1744 4.95798 29.6644C4.05873 35.1544 4.47946 40.7774 6.18595 46.0757C2.87887 48.6901 0.716325 52.4687 0.148666 56.6245C-0.418992 60.7804 0.65199 64.9932 3.13858 68.3857C5.62518 71.7781 9.33571 74.0887 13.4975 74.8363C17.6592 75.5839 21.9515 74.7108 25.4803 72.3989C27.3857 74.3596 29.6703 75.9192 32.1974 76.9844C34.7245 78.0496 37.4424 78.5986 40.1884 78.5986C42.9344 78.5986 45.6522 78.0496 48.1793 76.9844C50.7065 75.9192 52.9911 74.3596 54.8965 72.3989C58.4267 74.5771 62.6585 75.3467 66.7385 74.5526C70.8185 73.7584 74.4429 71.4596 76.8807 68.1198C79.3184 64.78 80.3881 60.6478 79.8739 56.5567C79.3597 52.4656 77.2999 48.7201 74.11 46.0757C75.8165 40.7774 76.2372 35.1544 75.3379 29.6644C74.4387 24.1744 72.2448 18.9725 68.935 14.482C65.6251 9.99159 61.2927 6.33949 56.2904 3.82295C51.2881 1.30642 45.7573 -0.00342913 40.148 6.74204e-06Z" fill="#E84D37"/>
<path d="M63.6143 78.9397C60.8327 78.9336 58.082 78.3608 55.5329 77.2569C55.1591 77.5574 54.7652 77.8279 54.3712 78.1083L54.9066 78.6292L50.9669 82.5356L49.2799 80.8628C48.5829 81.1333 47.8758 81.3737 47.1485 81.584L49.5325 83.9479L45.6029 87.8543L41.643 83.9479L43.2088 82.3954C42.2036 82.5225 41.1916 82.5894 40.1783 82.5957C39.1953 82.5935 38.2135 82.5299 37.2387 82.4054L38.7943 83.9479L34.8547 87.8543L30.915 83.9479L33.2788 81.6041C32.5597 81.3998 31.8516 81.1591 31.1574 80.8829L29.4603 82.5356L25.4803 78.6292L25.9752 78.1384C25.5611 77.8479 25.157 77.5674 24.763 77.2569C22.2139 78.3608 19.4633 78.9336 16.6816 78.9397C16.4796 78.9397 16.2776 78.9397 16.0755 78.9397C15.9989 79.4856 16.0543 80.0418 16.2372 80.5623L36.8245 137.776C36.8471 137.845 36.8741 137.912 36.9053 137.977C36.9328 138.046 36.9666 138.113 37.0063 138.177C37.077 138.317 37.1578 138.447 37.2387 138.578L37.3296 138.708C37.4539 138.873 37.5925 139.027 37.7438 139.169L37.8448 139.249L38.2387 139.549L38.4206 139.649C38.5604 139.726 38.7056 139.793 38.8549 139.85H38.9661L39.3701 139.95H39.5318C39.9059 140.017 40.289 140.017 40.6631 139.95H40.8349L41.2288 139.85H41.4006C41.5458 139.791 41.6875 139.724 41.8248 139.649L42.0067 139.539C42.1485 139.457 42.2806 139.36 42.4006 139.249L42.5118 139.169C42.6603 139.025 42.7987 138.871 42.9259 138.708L43.0067 138.578C43.0971 138.45 43.1781 138.316 43.2492 138.177L43.431 137.776L64.0588 80.5323C64.2464 80.0128 64.3019 79.4555 64.2204 78.9096C64.0183 78.9096 63.8668 78.9397 63.6143 78.9397ZM49.4719 94.5954L45.5322 98.5018L41.643 94.5954L45.5726 90.689L49.4719 94.5954ZM36.2487 99.9141L40.1884 96.0077L44.128 99.9141L40.1884 103.821L36.2487 99.9141ZM44.128 110.562L40.1884 114.468L36.2487 110.562L40.1884 106.655L44.128 110.562ZM40.1884 85.3703L44.128 89.2767L40.1884 93.153L36.2487 89.2466L40.1884 85.3703ZM38.764 94.5954L34.8244 98.5018L30.8847 94.5954L34.8244 90.689L38.764 94.5954ZM23.7023 80.4321L24.0862 80.0515L28.0259 83.9479L25.7732 86.1415L23.7023 80.4321ZM26.4904 88.275L29.4199 85.3703L33.3495 89.2767L29.4603 93.153L27.6521 91.3601L26.4904 88.275ZM29.3492 96.158L29.4603 96.0478L33.3899 99.9542L31.4201 101.957L29.3492 96.158ZM33.5616 107.927L32.1272 103.921L34.7839 101.296L38.7236 105.203L34.8244 109.179L33.5616 107.927ZM37.0265 117.563L35.1375 112.335L38.7236 115.88L37.0265 117.563ZM40.1076 126.137L37.7741 119.647L40.148 117.293L42.4613 119.586L40.1076 126.137ZM43.2189 117.503L41.643 115.88L45.0877 112.455L43.2189 117.503ZM46.6939 108.058L45.5524 109.179L41.643 105.233L45.5726 101.336L48.1687 103.901L46.6939 108.058ZM48.9365 101.817L47.0272 99.9141L50.9669 96.0077V96.0578L48.9365 101.817ZM52.6438 91.5103L50.9265 93.153L46.9868 89.2466L50.9265 85.3402L53.7651 88.2149L52.6438 91.5103ZM54.5429 86.1415L52.3508 83.9579L56.2905 80.0515L56.6138 80.372L54.5429 86.1415Z" fill="#E84D37"/>
</svg>

<svg width="80" height="140" fill="none" xmlns="http://www.w3.org/2000/svg"><path d="M40.148 7.012a28.755 28.755 0 0114.264 3.779 28.45 28.45 0 0110.455 10.336 28.144 28.144 0 013.856 14.131 28.141 28.141 0 01-3.775 14.153 9.424 9.424 0 014.686 2.068 9.303 9.303 0 012.89 4.201 9.23 9.23 0 01.23 5.08 9.284 9.284 0 01-2.497 4.443 9.406 9.406 0 01-4.48 2.476 9.461 9.461 0 01-5.124-.228 9.388 9.388 0 01-4.237-2.866 9.269 9.269 0 01-2.085-4.646c-.354.2-.717.39-1.081.58a13.135 13.135 0 01-4.501 7.915 13.342 13.342 0 01-8.601 3.137c-3.152 0-6.2-1.112-8.6-3.137a13.135 13.135 0 01-4.502-7.915c-.364-.19-.727-.38-1.08-.58a9.267 9.267 0 01-2.087 4.65 9.387 9.387 0 01-4.241 2.867 9.46 9.46 0 01-5.129.226 9.406 9.406 0 01-4.48-2.484 9.285 9.285 0 01-2.492-4.45 9.23 9.23 0 01.242-5.084 9.303 9.303 0 012.903-4.198 9.423 9.423 0 014.697-2.055 28.142 28.142 0 01-3.775-14.145A28.144 28.144 0 0115.45 21.14a28.448 28.448 0 0110.444-10.338 28.755 28.755 0 0114.253-3.79zm0-7.012a35.876 35.876 0 00-16.143 3.823 35.55 35.55 0 00-12.644 10.659 35.17 35.17 0 00-6.403 15.182 35.043 35.043 0 001.228 16.412A16.255 16.255 0 00.149 56.624a16.183 16.183 0 002.99 11.762 16.443 16.443 0 0010.359 6.45A16.54 16.54 0 0025.48 72.4a20.43 20.43 0 006.717 4.585 20.576 20.576 0 0015.982 0 20.43 20.43 0 006.718-4.585 16.543 16.543 0 0011.842 2.154A16.44 16.44 0 0076.88 68.12a16.183 16.183 0 002.993-11.563 16.25 16.25 0 00-5.764-10.481 35.042 35.042 0 001.228-16.412 35.17 35.17 0 00-6.403-15.182A35.552 35.552 0 0056.29 3.823 35.876 35.876 0 0040.148 0z" fill="#E84D37"/><path d="M63.614 78.94a20.452 20.452 0 01-8.081-1.683c-.374.3-.768.57-1.162.851l.536.521-3.94 3.907-1.687-1.673c-.697.27-1.404.51-2.132.721l2.384 2.364-3.93 3.906-3.959-3.906 1.566-1.553a25.418 25.418 0 01-3.03.2 23.62 23.62 0 01-2.94-.19l1.555 1.543-3.94 3.906-3.939-3.906 2.364-2.344a22.008 22.008 0 01-2.122-.721l-1.697 1.653-3.98-3.907.495-.49c-.414-.291-.818-.572-1.212-.882a20.451 20.451 0 01-8.081 1.683h-.606a3.448 3.448 0 00.161 1.622l20.588 57.214c.022.069.05.136.08.201.028.069.062.136.101.2.071.14.152.27.233.401l.09.13c.125.165.264.319.415.461l.1.08.395.3.182.1c.14.077.285.144.434.201h.111l.404.1h.162c.374.067.757.067 1.131 0h.172l.394-.1h.172a4.12 4.12 0 00.424-.201l.182-.11c.142-.082.274-.179.394-.29l.11-.08a4.49 4.49 0 00.415-.461l.08-.13a3.3 3.3 0 00.243-.401l.182-.401 20.628-57.244c.187-.52.243-1.076.161-1.622-.202 0-.353.03-.606.03zM49.472 94.595l-3.94 3.907-3.889-3.907 3.93-3.906 3.899 3.906zm-13.223 5.32l3.94-3.907 3.939 3.906-3.94 3.907-3.94-3.907zm7.879 10.647l-3.94 3.906-3.94-3.906 3.94-3.907 3.94 3.907zm-3.94-25.192l3.94 3.907-3.94 3.876-3.94-3.906 3.94-3.877zm-1.424 9.225l-3.94 3.907-3.94-3.907 3.94-3.906 3.94 3.906zM23.702 80.432l.384-.38 3.94 3.896-2.253 2.194-2.07-5.71zm2.788 7.843l2.93-2.905 3.93 3.907-3.89 3.876-1.808-1.793-1.162-3.085zm2.86 7.883l.11-.11 3.93 3.906-1.97 2.003-2.07-5.799zm4.212 11.769l-1.435-4.006 2.657-2.625 3.94 3.907-3.9 3.976-1.262-1.252zm3.465 9.636l-1.89-5.228 3.587 3.545-1.697 1.683zm3.08 8.574l-2.333-6.49 2.374-2.354 2.313 2.293-2.353 6.551zm3.112-8.634l-1.576-1.623 3.445-3.425-1.87 5.048zm3.475-9.445l-1.142 1.121-3.909-3.946 3.93-3.897 2.596 2.565-1.475 4.157zm2.242-6.241l-1.909-1.903 3.94-3.906v.05l-2.03 5.759zm3.708-10.307l-1.718 1.643-3.94-3.906 3.94-3.907 2.84 2.875-1.122 3.295zm1.899-5.369l-2.192-2.183 3.94-3.906.323.32-2.071 5.77z" fill="#E84D37"/></svg>
